!!!SOCIAL_FUNCTION:	memorial ceremony songs
!!!PDT:	1932
!!!OTL: No_21_Memorial_Ceremony_Song_(b).krn
!!!REG: Southwest
!!!LANG: Non-Tone
!!!LING_GROUP: Yuman-Cochimi
**kern
*staff1
=1-
*clefF4
*k[f#c#g#]
*M2/4
4F#\
4F#\
=2||
*M3/4
4F#\
4F#\
8.F#\L
16A\Jk
=3||
*M2/4
[2F#\
=4
4F#\]
8F#\
8r
=5
4A\
4A\
=6
4E\
4C#/
=7
4BB/
4r
=8
4F#\
8.F#\L
16F#\Jk
=9||
*M3/4
4F#\
4F#\
8.F#\L
16A\Jk
=10||
*M2/4
[2F#\
=11
4F#\]
4F#\
=12
4A\
4A\
=13
4E\
4C#/
=14
8BB/
8r
4F#\
=15||
*M3/4
2E\
4r
=16||
*M2/4
4C#/
4E\
=17
4E\
8.E\L
16F#\Jk
=18||
*M3/4
2.E\
=19
4E\
4E\
8.E\L
16F#\Jk
=20||
*M2/4
4C#/
8r
16r
16E\
=21
4E\
4E\
=22||
*M3/4
4C#/
8C#/
8r
4r
=23||
*M2/4
4C#/
8C#/
8r
=24
4r
4C#/
=25||
*M3/4
8E\L
8E\J
4E\
4E\
=26
[2.E\
=27
2.E\_
=28
2.E\_
=29
2.E\]
==
*-
